X:461
T: Shehui zhuyi jinguangdao
N: C2079
O: China, Qinghai Huzu
S: I, 235, 2)]
N: Tuzu
R: Shange, Honghualing]
M: 2/4
L: 1/16
K: F
A2G2A4 | G2A2G2A2 | c3df3g | d2c6- | c6d2
c3df3g | G2A6- | A8
A2G2A4 | G2A2G2A2 | c3df2ga | d2c2c2d2 | F4G3F | D6^C2
F2G2B2G2 | F8

